docs/avatar.svg

<svg xmlns="http://www.w3.org/2000/svg" viewBox="0 0 580 580"><path d="M311.038 15.391C306.473 16.854 298 25.27 298 28.341c0 1.166-3.599 1.534-19.75 2.022-22.044.665-30.52 1.6-50.25 5.546-16.628 3.325-17.251 3.393-18.049 1.972-2.427-4.321-8.206-8.689-14.201-10.732-4.724-1.61-9.369-.221-15.524 4.645-5.511 4.357-8.226 9.701-8.226 16.191 0 4.607-.248 5.158-2.75 6.101-1.512.57-4.057 1.684-5.654 2.475-1.597.792-3.509 1.439-4.25 1.439-.74 0-1.346.42-1.346.933 0 .513-.897 1.217-1.994 1.565-1.097.348-2.57 1.166-3.275 1.818-.704.651-3.294 2.736-5.756 4.632-2.461 1.897-4.836 4.037-5.278 4.756-.441.719-1.796 2.463-3.011 3.874l-2.208 2.567-4.281-4.072c-2.355-2.24-5.162-4.073-6.239-4.073S124 69.643 124 69.207c0-1.374-8.773-3.207-15.349-3.207-11.364 0-26.024 6.723-29.72 13.629-.698 1.304-1.643 2.371-2.1 2.371-.457 0-.831.873-.831 1.941s-.45 2.219-1 2.559c-1.5.927-1.203 9.786.457 13.628.802 1.855 2.318 4.643 3.369 6.196 2.385 3.524 13.09 11.651 15.365 11.665.93.006 1.937.409 2.238.896.62 1.003 4.571 1.925 12.538 2.927l5.467.688-.31 21.907c-.171 12.049-.774 23.074-1.342 24.5a619.713 619.713 0 0 0-1.803 4.593c-.722 1.871-2.294 5.392-8.479 19l-5.114 11.25c-6.133 13.491-11.373 34.416-11.332 45.25.017 4.434 1.982 17.684 3.781 25.5 1.461 6.344 6.521 20.967 7.382 21.333.431.184.783 1.021.783 1.86 0 1.438 5.788 13.226 7.024 14.307.315.275 1.647 2.075 2.961 4 3.917 5.738 20.061 21.364 26.651 25.794 7.087 4.765 19.841 11.134 26.364 13.165 2.475.771 4.95 1.71 5.5 2.087.55.377 2.125.929 3.5 1.227 1.375.298 5.2 1.215 8.5 2.037 3.3.823 8.7 2.032 12 2.688 3.3.656 7.034 1.6 8.297 2.097 1.263.498 3.453.905 4.867.905 2.287 0 2.501.302 1.946 2.75-.343 1.512-1.085 6.575-1.651 11.25-.565 4.675-1.479 11.2-2.031 14.5-.552 3.3-1.235 9.375-1.519 13.5-.619 9.015-1.413 10.84-7.895 18.165-2.758 3.116-5.91 7.391-7.004 9.5-1.095 2.109-2.228 4.06-2.517 4.335-1.065 1.012-2.993 10.154-2.993 14.193 0 7.254 4.059 17.18 9.74 23.816 1.879 2.195 4.056 3.991 4.838 3.991s1.422.399 1.422.886 1.569 1.631 3.486 2.541c1.918.91 3.888 2.423 4.378 3.364 1.131 2.167 4.136 17.065 4.136 20.5 0 1.425.45 2.869 1 3.209.55.34 1 1.695 1 3.012s.407 3.428.905 4.691c.497 1.263 1.46 4.997 2.139 8.297 1.535 7.458 7.174 24.883 8.198 25.333.417.184.758 1.196.758 2.25 0 1.055.45 1.917 1 1.917s1 .727 1 1.617c0 2.228 10.886 12.789 15.076 14.624 7.452 3.264 11.463 3.906 21.424 3.428 11.248-.54 17.255-1.464 18.068-2.779.303-.49 1.301-.89 2.219-.89 2.223 0 15.213-6.129 15.213-7.177 0-.453.648-.823 1.441-.823s1.655-.347 1.918-.771c.262-.424.981-13.362 1.599-28.75 1.343-33.483 2.102-37.02 9.617-44.824 7.089-7.361 14.269-9.342 24.309-6.706 11.296 2.966 13.116 3.559 13.116 4.269 0 .43 1.035.782 2.3.782s2.728.369 3.25.82c1.933 1.668 20.244 6.707 28.45 7.83 7.394 1.011 24.55.952 29.5-.101 12.416-2.643 23.278-11.494 27.671-22.549 4.842-12.183 5.648-18.114 3.535-26-3.601-13.436-12.757-19.365-41.956-27.167-2.612-.698-4.75-1.621-4.75-2.051 0-.43-.9-.782-2-.782s-2-.34-2-.756-1.277-1.321-2.839-2.012l-2.839-1.257-1.586-16.237c-1.498-15.327-2.225-19.982-4.802-30.738-.593-2.475-1.321-5.967-1.617-7.759-.296-1.793-.938-3.507-1.427-3.809-.49-.303-.89-1.622-.89-2.932 0-1.31-.398-2.628-.885-2.929-1.065-.658-2.042-6.567-1.376-8.321.261-.687 1.237-1.25 2.168-1.25s2.121-.398 2.643-.884c.523-.485 3.875-1.888 7.45-3.116 3.575-1.228 6.928-2.631 7.45-3.116.523-.486 1.535-.884 2.249-.884.715 0 5.01-1.8 9.546-4s8.811-4 9.501-4c.69 0 1.254-.45 1.254-1s.9-1 2-1 2-.45 2-1 .9-1 2-1 2-.361 2-.803c0-.442 2.243-1.904 4.984-3.25 2.742-1.346 4.992-2.784 5-3.197.009-.413.606-.75 1.327-.75.722 0 2.185-.788 3.251-1.75 1.067-.962 3.637-3.018 5.712-4.568 4.753-3.552 7.389-6.189 12.307-12.313 2.151-2.678 4.588-5.549 5.415-6.38.827-.831 2.067-2.518 2.754-3.75.688-1.231 1.813-3.251 2.5-4.489.688-1.238 1.475-2.475 1.75-2.75 1.323-1.323 5-8.961 5-10.386 0-.888.45-1.614 1-1.614s1-.681 1-1.514c0-.832.397-2.295.883-3.25 1.716-3.373 2.974-6.771 3.603-9.736.351-1.65 1.128-5.25 1.728-8 1.533-7.032 1.46-36.895-.103-42.5-.691-2.475-1.497-5.963-1.793-7.75-.295-1.787-.938-3.25-1.427-3.25-.49 0-.891-.688-.891-1.529 0-1.584-5.267-12.555-7.328-15.262-1.801-2.367-14.961-15.56-27.172-27.241-10.096-9.657-15.964-15.765-25.568-26.61-1.962-2.216-5.902-7.59-8.756-11.943s-5.637-8.459-6.183-9.123c-.546-.664-.993-1.902-.993-2.75 0-.848-.337-1.546-.75-1.55-.413-.004-1.305-1.204-1.984-2.666-1.477-3.179-.195-5.326 3.179-5.326 4.116 0 14.974-6.134 20.106-11.358C429.37 67.7 432 62.006 432 54.184c0-3.456-.441-6.184-1-6.184-.55 0-1-.758-1-1.684 0-2.489-9.582-11.282-13.049-11.976-1.646-.329-3.235-.99-3.531-1.469-.296-.479-3.969-.871-8.162-.871-11.729 0-23.678 5.02-31.409 13.196-3.161 3.343-7.219 3.643-10.849.804-1.375-1.076-3.062-1.966-3.75-1.978-.687-.012-1.25-.42-1.25-.905 0-.486-.788-1.145-1.75-1.464-.962-.32-3.55-1.266-5.75-2.102-2.2-.837-4.766-1.528-5.703-1.536-2.839-.025-6.797-2.243-6.797-3.809 0-7.196-7.462-16.829-14.72-19.004-4.656-1.395-7.434-1.352-12.242.189m1.114 11.494c-.742.47-1.186 1.701-.987 2.735.275 1.428 1.559 2.033 5.348 2.519 2.743.351 6.225.962 7.737 1.358 2.3.602 2.75.403 2.75-1.214 0-3.419-4.145-6.285-9.064-6.268-2.44.009-5.043.4-5.784.87M187.704 39.596c-4.111 2.229-5.965 8.404-2.523 8.404C187.07 48 200 42.651 200 41.87c0-1.428-4.446-3.87-6.973-3.83-1.39.022-3.785.722-5.323 1.556m78.796 2.43c-29.705 2.652-52.348 7.321-75.139 15.494-20.635 7.4-32.113 13.392-39.169 20.448-7.335 7.335-13.928 17.058-19.21 28.329-5.532 11.806-7.167 19.728-6.835 33.133.644 26.048-.003 29.954-7.612 45.98-15.578 32.809-19.097 42.922-20.147 57.896-1.247 17.778 3.525 37.907 13.687 57.726 11.496 22.423 28.315 35.773 57.169 45.378 54.476 18.134 132.179 11.954 211.256-16.801 13.854-5.038 38.432-17.247 50.5-25.086 12.078-7.845 25.865-23.533 32.977-37.523 4.308-8.474 7.903-21.417 9.216-33.177 2.98-26.702-5.502-52.789-21.35-65.663-10.006-8.128-29.897-27.383-37.29-36.098-16.007-18.866-23.536-31.432-26.985-45.037-2.21-8.714-5.22-13.534-12.991-20.804-15.664-14.653-46.11-23.824-81.989-24.697-8.848-.215-20.588.011-26.088.502m131.697 1.986c-6.321 1.325-18.779 8.816-18.051 10.854.194.547 2.604 3.406 5.354 6.354 2.75 2.949 5.961 7.143 7.137 9.32 1.175 2.178 3.2 4.345 4.501 4.816 7.41 2.681 22.885-8.631 25.374-18.548.75-2.988-2.834-8.508-7.169-11.04-3.8-2.219-11.281-2.985-17.146-1.756M99.5 77.882c-7.127 1.86-11.403 5.28-13.835 11.064-1.238 2.944-1.232 3.855.046 6.97 1.898 4.626 6.759 9.729 11.685 12.267 3.662 1.886 17.672 4.023 20.262 3.09.638-.229 1.679-1.847 2.316-3.595.636-1.748 3.152-7.296 5.591-12.329S130 85.77 130 85.247c0-.523-3.037-2.339-6.75-4.036-7.198-3.289-18.065-4.812-23.75-3.329m311 87.673c-1.985.787-54.395 9.267-71.356 11.545l-17.356 2.331.438 5.283c.241 2.906.678 5.523.971 5.816.68.68 46.331-5.797 62.803-8.91 34.557-6.532 32-5.875 32-8.215 0-1.185-.281-3.561-.625-5.28-.515-2.577-1.085-3.111-3.25-3.046-1.444.043-3.075.257-3.625.476m-173 29.544c-8.157 1.408-34.582 3.705-56 4.868-11 .597-21.8 1.186-24 1.309l-4 .224-.303 5.261c-.244 4.253.031 5.389 1.437 5.929 2.165.83 62.137-3.227 80.205-5.426l13.339-1.624-.589-2.945c-.324-1.62-.589-4.239-.589-5.82 0-3.213-.567-3.319-9.5-1.776m115 155.44c-3.85 1.287-12.175 3.558-18.5 5.048-6.325 1.49-11.896 3.061-12.38 3.491-.484.43 2.073 2.924 5.682 5.541 7.437 5.393 10.985 11.124 12.723 20.548 1.264 6.851.044 15.817-2.951 21.687-1.138 2.231-4.64 6.567-7.782 9.635-6.668 6.509-10.966 8.064-24.792 8.966-4.95.323-21.984 1.508-37.852 2.634-15.869 1.126-29.481 1.805-30.25 1.51-.941-.361-1.398-2.181-1.398-5.568 0-4.553.214-5.03 2.25-5.023 1.238.005 13.5-.888 27.25-1.984s30.748-2.444 37.773-2.995c7.429-.582 13.974-1.622 15.642-2.485 3.658-1.892 8.932-8.524 10.147-12.759 3.264-11.381-1.986-24.173-11.377-27.721-4.062-1.535-19.456-1.239-24.185.465-4.35 1.567-8.456 1.912-8.574.721-.194-1.951-1.007-5.664-1.306-5.963-.184-.184-6.361.125-13.727.687-7.366.561-22.035 1.022-32.598 1.024l-19.204.002-.503 3.25c-4.093 26.457-5.596 41.741-5.582 56.75.026 29.079 2.834 52.052 10.608 86.792 10.149 45.35 15.075 52.208 37.5 52.208 7.122 0 10.723-.596 18.338-3.035 5.212-1.67 10.143-3.703 10.959-4.519 1.224-1.224 1.472-5.28 1.418-23.214-.06-20.094.124-22.449 2.435-31.243 4.306-16.386 10.875-28.624 21.554-40.159 5.885-6.357 8.39-7.148 11.993-3.791 2.895 2.697 2.797 3.282-1.311 7.829-1.925 2.131-3.5 4.152-3.5 4.491 0 .34 2.813.589 6.25.554 7.679-.078 15.843 1.805 30.482 7.032 16.762 5.984 29.414 8.306 42.768 7.848 12.947-.443 17.715-2.181 24.228-8.828 5.162-5.269 7.311-11.287 7.538-21.118.304-13.12-2.113-15.31-25.123-22.768-16.082-5.213-25.587-10.173-29.614-15.452-2.171-2.846-2.448-4.194-2.404-11.672.066-11.281-4.408-37.495-9.253-54.205-2.277-7.856-2.375-7.886-13.372-4.211m-155.324 86.285c-4.357 4.357-6.417 10.076-5.977 16.594.709 10.515 8.142 23.722 10.938 19.435.486-.744.685-2.253.444-3.353-.242-1.1-.752-8.75-1.133-17-.794-17.2-1.213-18.735-4.272-15.676" fill="#606060" fill-rule="evenodd"/></svg>

<svg xmlns="http://www.w3.org/2000/svg" width="572" height="581" viewBox="0 0 572 581" version="1.1"><path d="M 311.038 15.391 C 306.473 16.854, 298 25.270, 298 28.341 C 298 29.507, 294.401 29.875, 278.250 30.363 C 256.206 31.028, 247.730 31.963, 228 35.909 C 211.372 39.234, 210.749 39.302, 209.951 37.881 C 207.524 33.560, 201.745 29.192, 195.750 27.149 C 191.026 25.539, 186.381 26.928, 180.226 31.794 C 174.715 36.151, 172 41.495, 172 47.985 C 172 52.592, 171.752 53.143, 169.250 54.086 C 167.738 54.656, 165.193 55.770, 163.596 56.561 C 161.999 57.353, 160.087 58, 159.346 58 C 158.606 58, 158 58.420, 158 58.933 C 158 59.446, 157.103 60.150, 156.006 60.498 C 154.909 60.846, 153.436 61.664, 152.731 62.316 C 152.027 62.967, 149.437 65.052, 146.975 66.948 C 144.514 68.845, 142.139 70.985, 141.697 71.704 C 141.256 72.423, 139.901 74.167, 138.686 75.578 L 136.478 78.145 132.197 74.073 C 129.842 71.833, 127.035 70, 125.958 70 C 124.881 70, 124 69.643, 124 69.207 C 124 67.833, 115.227 66, 108.651 66 C 97.287 66, 82.627 72.723, 78.931 79.629 C 78.233 80.933, 77.288 82, 76.831 82 C 76.374 82, 76 82.873, 76 83.941 C 76 85.009, 75.550 86.160, 75 86.500 C 73.500 87.427, 73.797 96.286, 75.457 100.128 C 76.259 101.983, 77.775 104.771, 78.826 106.324 C 81.211 109.848, 91.916 117.975, 94.191 117.989 C 95.121 117.995, 96.128 118.398, 96.429 118.885 C 97.049 119.888, 101 120.810, 108.967 121.812 L 114.434 122.500 114.124 144.407 C 113.953 156.456, 113.350 167.481, 112.782 168.907 C 112.215 170.333, 111.404 172.400, 110.979 173.500 C 110.257 175.371, 108.685 178.892, 102.500 192.500 C 101.125 195.525, 98.824 200.588, 97.386 203.750 C 91.253 217.241, 86.013 238.166, 86.054 249 C 86.071 253.434, 88.036 266.684, 89.835 274.500 C 91.296 280.844, 96.356 295.467, 97.217 295.833 C 97.648 296.017, 98 296.854, 98 297.693 C 98 299.131, 103.788 310.919, 105.024 312 C 105.339 312.275, 106.671 314.075, 107.985 316 C 111.902 321.738, 128.046 337.364, 134.636 341.794 C 141.723 346.559, 154.477 352.928, 161 354.959 C 163.475 355.730, 165.950 356.669, 166.500 357.046 C 167.050 357.423, 168.625 357.975, 170 358.273 C 171.375 358.571, 175.200 359.488, 178.500 360.310 C 181.800 361.133, 187.200 362.342, 190.500 362.998 C 193.800 363.654, 197.534 364.598, 198.797 365.095 C 200.060 365.593, 202.250 366, 203.664 366 C 205.951 366, 206.165 366.302, 205.610 368.750 C 205.267 370.262, 204.525 375.325, 203.959 380 C 203.394 384.675, 202.480 391.200, 201.928 394.500 C 201.376 397.800, 200.693 403.875, 200.409 408 C 199.790 417.015, 198.996 418.840, 192.514 426.165 C 189.756 429.281, 186.604 433.556, 185.510 435.665 C 184.415 437.774, 183.282 439.725, 182.993 440 C 181.928 441.012, 180 450.154, 180 454.193 C 180 461.447, 184.059 471.373, 189.740 478.009 C 191.619 480.204, 193.796 482, 194.578 482 C 195.360 482, 196 482.399, 196 482.886 C 196 483.373, 197.569 484.517, 199.486 485.427 C 201.404 486.337, 203.374 487.850, 203.864 488.791 C 204.995 490.958, 208 505.856, 208 509.291 C 208 510.716, 208.450 512.160, 209 512.500 C 209.550 512.840, 210 514.195, 210 515.512 C 210 516.829, 210.407 518.940, 210.905 520.203 C 211.402 521.466, 212.365 525.200, 213.044 528.500 C 214.579 535.958, 220.218 553.383, 221.242 553.833 C 221.659 554.017, 222 555.029, 222 556.083 C 222 557.138, 222.450 558, 223 558 C 223.550 558, 224 558.727, 224 559.617 C 224 561.845, 234.886 572.406, 239.076 574.241 C 246.528 577.505, 250.539 578.147, 260.500 577.669 C 271.748 577.129, 277.755 576.205, 278.568 574.890 C 278.871 574.400, 279.869 574, 280.787 574 C 283.010 574, 296 567.871, 296 566.823 C 296 566.370, 296.648 566, 297.441 566 C 298.234 566, 299.096 565.653, 299.359 565.229 C 299.621 564.805, 300.340 551.867, 300.958 536.479 C 302.301 502.996, 303.060 499.459, 310.575 491.655 C 317.664 484.294, 324.844 482.313, 334.884 484.949 C 346.180 487.915, 348 488.508, 348 489.218 C 348 489.648, 349.035 490, 350.300 490 C 351.565 490, 353.028 490.369, 353.550 490.820 C 355.483 492.488, 373.794 497.527, 382 498.650 C 389.394 499.661, 406.550 499.602, 411.500 498.549 C 423.916 495.906, 434.778 487.055, 439.171 476 C 444.013 463.817, 444.819 457.886, 442.706 450 C 439.105 436.564, 429.949 430.635, 400.750 422.833 C 398.138 422.135, 396 421.212, 396 420.782 C 396 420.352, 395.100 420, 394 420 C 392.900 420, 392 419.660, 392 419.244 C 392 418.828, 390.723 417.923, 389.161 417.232 L 386.322 415.975 384.736 399.738 C 383.238 384.411, 382.511 379.756, 379.934 369 C 379.341 366.525, 378.613 363.033, 378.317 361.241 C 378.021 359.448, 377.379 357.734, 376.890 357.432 C 376.400 357.129, 376 355.810, 376 354.500 C 376 353.190, 375.602 351.872, 375.115 351.571 C 374.050 350.913, 373.073 345.004, 373.739 343.250 C 374 342.563, 374.976 342, 375.907 342 C 376.838 342, 378.028 341.602, 378.550 341.116 C 379.073 340.631, 382.425 339.228, 386 338 C 389.575 336.772, 392.928 335.369, 393.450 334.884 C 393.973 334.398, 394.985 334, 395.699 334 C 396.414 334, 400.709 332.200, 405.245 330 C 409.781 327.800, 414.056 326, 414.746 326 C 415.436 326, 416 325.550, 416 325 C 416 324.450, 416.900 324, 418 324 C 419.100 324, 420 323.550, 420 323 C 420 322.450, 420.900 322, 422 322 C 423.100 322, 424 321.639, 424 321.197 C 424 320.755, 426.243 319.293, 428.984 317.947 C 431.726 316.601, 433.976 315.163, 433.984 314.750 C 433.993 314.337, 434.590 314, 435.311 314 C 436.033 314, 437.496 313.212, 438.562 312.250 C 439.629 311.288, 442.199 309.232, 444.274 307.682 C 449.027 304.130, 451.663 301.493, 456.581 295.369 C 458.732 292.691, 461.169 289.820, 461.996 288.989 C 462.823 288.158, 464.063 286.471, 464.750 285.239 C 465.438 284.008, 466.563 281.988, 467.250 280.750 C 467.938 279.512, 468.725 278.275, 469 278 C 470.323 276.677, 474 269.039, 474 267.614 C 474 266.726, 474.450 266, 475 266 C 475.550 266, 476 265.319, 476 264.486 C 476 263.654, 476.397 262.191, 476.883 261.236 C 478.599 257.863, 479.857 254.465, 480.486 251.500 C 480.837 249.850, 481.614 246.250, 482.214 243.500 C 483.747 236.468, 483.674 206.605, 482.111 201 C 481.420 198.525, 480.614 195.037, 480.318 193.250 C 480.023 191.463, 479.380 190, 478.891 190 C 478.401 190, 478 189.312, 478 188.471 C 478 186.887, 472.733 175.916, 470.672 173.209 C 468.871 170.842, 455.711 157.649, 443.500 145.968 C 433.404 136.311, 427.536 130.203, 417.932 119.358 C 415.970 117.142, 412.030 111.768, 409.176 107.415 C 406.322 103.062, 403.539 98.956, 402.993 98.292 C 402.447 97.628, 402 96.390, 402 95.542 C 402 94.694, 401.663 93.996, 401.250 93.992 C 400.837 93.988, 399.945 92.788, 399.266 91.326 C 397.789 88.147, 399.071 86, 402.445 86 C 406.561 86, 417.419 79.866, 422.551 74.642 C 429.370 67.700, 432 62.006, 432 54.184 C 432 50.728, 431.559 48, 431 48 C 430.450 48, 430 47.242, 430 46.316 C 430 43.827, 420.418 35.034, 416.951 34.340 C 415.305 34.011, 413.716 33.350, 413.420 32.871 C 413.124 32.392, 409.451 32, 405.258 32 C 393.529 32, 381.580 37.020, 373.849 45.196 C 370.688 48.539, 366.630 48.839, 363 46 C 361.625 44.924, 359.938 44.034, 359.250 44.022 C 358.563 44.010, 358 43.602, 358 43.117 C 358 42.631, 357.212 41.972, 356.250 41.653 C 355.288 41.333, 352.700 40.387, 350.500 39.551 C 348.300 38.714, 345.734 38.023, 344.797 38.015 C 341.958 37.990, 338 35.772, 338 34.206 C 338 27.010, 330.538 17.377, 323.280 15.202 C 318.624 13.807, 315.846 13.850, 311.038 15.391 M 312.152 26.885 C 311.410 27.355, 310.966 28.586, 311.165 29.620 C 311.440 31.048, 312.724 31.653, 316.513 32.139 C 319.256 32.490, 322.738 33.101, 324.250 33.497 C 326.550 34.099, 327 33.900, 327 32.283 C 327 28.864, 322.855 25.998, 317.936 26.015 C 315.496 26.024, 312.893 26.415, 312.152 26.885 M 187.704 39.596 C 183.593 41.825, 181.739 48, 185.181 48 C 187.070 48, 200 42.651, 200 41.870 C 200 40.442, 195.554 38, 193.027 38.040 C 191.637 38.062, 189.242 38.762, 187.704 39.596 M 266.500 42.026 C 236.795 44.678, 214.152 49.347, 191.361 57.520 C 170.726 64.920, 159.248 70.912, 152.192 77.968 C 144.857 85.303, 138.264 95.026, 132.982 106.297 C 127.450 118.103, 125.815 126.025, 126.147 139.430 C 126.791 165.478, 126.144 169.384, 118.535 185.410 C 102.957 218.219, 99.438 228.332, 98.388 243.306 C 97.141 261.084, 101.913 281.213, 112.075 301.032 C 123.571 323.455, 140.390 336.805, 169.244 346.410 C 223.720 364.544, 301.423 358.364, 380.500 329.609 C 394.354 324.571, 418.932 312.362, 431 304.523 C 443.078 296.678, 456.865 280.990, 463.977 267 C 468.285 258.526, 471.880 245.583, 473.193 233.823 C 476.173 207.121, 467.691 181.034, 451.843 168.160 C 441.837 160.032, 421.946 140.777, 414.553 132.062 C 398.546 113.196, 391.017 100.630, 387.568 87.025 C 385.358 78.311, 382.348 73.491, 374.577 66.221 C 358.913 51.568, 328.467 42.397, 292.588 41.524 C 283.740 41.309, 272 41.535, 266.500 42.026 M 398.197 44.012 C 391.876 45.337, 379.418 52.828, 380.146 54.866 C 380.340 55.413, 382.750 58.272, 385.500 61.220 C 388.250 64.169, 391.461 68.363, 392.637 70.540 C 393.812 72.718, 395.837 74.885, 397.138 75.356 C 404.548 78.037, 420.023 66.725, 422.512 56.808 C 423.262 53.820, 419.678 48.300, 415.343 45.768 C 411.543 43.549, 404.062 42.783, 398.197 44.012 M 99.500 77.882 C 92.373 79.742, 88.097 83.162, 85.665 88.946 C 84.427 91.890, 84.433 92.801, 85.711 95.916 C 87.609 100.542, 92.470 105.645, 97.396 108.183 C 101.058 110.069, 115.068 112.206, 117.658 111.273 C 118.296 111.044, 119.337 109.426, 119.974 107.678 C 120.610 105.930, 123.126 100.382, 125.565 95.349 C 128.004 90.316, 130 85.770, 130 85.247 C 130 84.724, 126.963 82.908, 123.250 81.211 C 116.052 77.922, 105.185 76.399, 99.500 77.882 M 410.500 165.555 C 408.515 166.342, 356.105 174.822, 339.144 177.100 L 321.788 179.431 322.226 184.714 C 322.467 187.620, 322.904 190.237, 323.197 190.530 C 323.877 191.210, 369.528 184.733, 386 181.620 C 420.557 175.088, 418 175.745, 418 173.405 C 418 172.220, 417.719 169.844, 417.375 168.125 C 416.860 165.548, 416.290 165.014, 414.125 165.079 C 412.681 165.122, 411.050 165.336, 410.500 165.555 M 237.500 195.099 C 229.343 196.507, 202.918 198.804, 181.500 199.967 C 170.500 200.564, 159.700 201.153, 157.500 201.276 L 153.500 201.500 153.197 206.761 C 152.953 211.014, 153.228 212.150, 154.634 212.690 C 156.799 213.520, 216.771 209.463, 234.839 207.264 L 248.178 205.640 247.589 202.695 C 247.265 201.075, 247 198.456, 247 196.875 C 247 193.662, 246.433 193.556, 237.500 195.099 M 352.500 350.539 C 348.650 351.826, 340.325 354.097, 334 355.587 C 327.675 357.077, 322.104 358.648, 321.620 359.078 C 321.136 359.508, 323.693 362.002, 327.302 364.619 C 334.739 370.012, 338.287 375.743, 340.025 385.167 C 341.289 392.018, 340.069 400.984, 337.074 406.854 C 335.936 409.085, 332.434 413.421, 329.292 416.489 C 322.624 422.998, 318.326 424.553, 304.500 425.455 C 299.550 425.778, 282.516 426.963, 266.648 428.089 C 250.779 429.215, 237.167 429.894, 236.398 429.599 C 235.457 429.238, 235 427.418, 235 424.031 C 235 419.478, 235.214 419.001, 237.250 419.008 C 238.488 419.013, 250.750 418.120, 264.500 417.024 C 278.250 415.928, 295.248 414.580, 302.273 414.029 C 309.702 413.447, 316.247 412.407, 317.915 411.544 C 321.573 409.652, 326.847 403.020, 328.062 398.785 C 331.326 387.404, 326.076 374.612, 316.685 371.064 C 312.623 369.529, 297.229 369.825, 292.500 371.529 C 288.150 373.096, 284.044 373.441, 283.926 372.250 C 283.732 370.299, 282.919 366.586, 282.620 366.287 C 282.436 366.103, 276.259 366.412, 268.893 366.974 C 261.527 367.535, 246.858 367.996, 236.295 367.998 L 217.091 368 216.588 371.250 C 212.495 397.707, 210.992 412.991, 211.006 428 C 211.032 457.079, 213.840 480.052, 221.614 514.792 C 231.763 560.142, 236.689 567, 259.114 567 C 266.236 567, 269.837 566.404, 277.452 563.965 C 282.664 562.295, 287.595 560.262, 288.411 559.446 C 289.635 558.222, 289.883 554.166, 289.829 536.232 C 289.769 516.138, 289.953 513.783, 292.264 504.989 C 296.570 488.603, 303.139 476.365, 313.818 464.830 C 319.703 458.473, 322.208 457.682, 325.811 461.039 C 328.706 463.736, 328.608 464.321, 324.500 468.868 C 322.575 470.999, 321 473.020, 321 473.359 C 321 473.699, 323.813 473.948, 327.250 473.913 C 334.929 473.835, 343.093 475.718, 357.732 480.945 C 374.494 486.929, 387.146 489.251, 400.500 488.793 C 413.447 488.350, 418.215 486.612, 424.728 479.965 C 429.890 474.696, 432.039 468.678, 432.266 458.847 C 432.570 445.727, 430.153 443.537, 407.143 436.079 C 391.061 430.866, 381.556 425.906, 377.529 420.627 C 375.358 417.781, 375.081 416.433, 375.125 408.955 C 375.191 397.674, 370.717 371.460, 365.872 354.750 C 363.595 346.894, 363.497 346.864, 352.500 350.539 M 197.176 436.824 C 192.819 441.181, 190.759 446.900, 191.199 453.418 C 191.908 463.933, 199.341 477.140, 202.137 472.853 C 202.623 472.109, 202.822 470.600, 202.581 469.500 C 202.339 468.400, 201.829 460.750, 201.448 452.500 C 200.654 435.300, 200.235 433.765, 197.176 436.824" stroke="none" fill="#333333" fill-rule="evenodd"/></svg>
